X:1
T:Avalon Quickstep - D
M:C|
L:1/8
S:Narmour & Smith (Mississippi)
K:D
|:ABAG FGA2|f2 d4 d2|ABAG FG A2|E6 F/G/|
ABAG FG A2|f2 d4 (ef)|gfed cABc|1 d4 d4:|2 d4 d2 fg||
|:a2 fa- af a2|b4 a4|f2 d4 ef|gfed cB A2|b4 a4|
a2 fa- afa2|b4 a4|f2 d4 ef|gfed cABc|1 d4 d2 fg:|2 d4 d4|